images/fast-delivery.svg

<?xml version="1.0" encoding="iso-8859-1"?>
<!-- Generator: Adobe Illustrator 18.0.0, SVG Export Plug-In . SVG Version: 6.00 Build 0)  -->
<!DOCTYPE svg PUBLIC "-//W3C//DTD SVG 1.1//EN" "http://www.w3.org/Graphics/SVG/1.1/DTD/svg11.dtd">
<svg version="1.1" id="Capa_1" xmlns="http://www.w3.org/2000/svg" xmlns:xlink="http://www.w3.org/1999/xlink" x="0px" y="0px"
	 viewBox="0 0 422.518 422.518" style="enable-background:new 0 0 422.518 422.518;" xml:space="preserve">
<path d="M422.512,215.424c0-0.079-0.004-0.158-0.005-0.237c-0.116-5.295-4.368-9.514-9.727-9.514h-2.554l-39.443-76.258
	c-1.664-3.22-4.983-5.225-8.647-5.226l-67.34-0.014l2.569-20.364c0.733-8.138-1.783-15.822-7.086-21.638
	c-5.293-5.804-12.683-9.001-20.81-9.001h-209c-5.255,0-9.719,4.066-10.22,9.308l-2.095,16.778h119.078
	c7.732,0,13.836,6.268,13.634,14c-0.203,7.732-6.635,14-14.367,14H126.78c0.007,0.02,0.014,0.04,0.021,0.059H10.163
	c-5.468,0-10.017,4.432-10.16,9.9c-0.143,5.468,4.173,9.9,9.641,9.9H164.06c7.168,1.104,12.523,7.303,12.326,14.808
	c-0.216,8.242-7.039,14.925-15.267,14.994H54.661c-5.523,0-10.117,4.477-10.262,10c-0.145,5.523,4.215,10,9.738,10h105.204
	c7.273,1.013,12.735,7.262,12.537,14.84c-0.217,8.284-7.109,15-15.393,15H35.792v0.011H25.651c-5.523,0-10.117,4.477-10.262,10
	c-0.145,5.523,4.214,10,9.738,10h8.752l-3.423,35.818c-0.734,8.137,1.782,15.821,7.086,21.637c5.292,5.805,12.683,9.001,20.81,9.001
	h7.55C69.5,333.8,87.3,349.345,109.073,349.345c21.773,0,40.387-15.545,45.06-36.118h94.219c7.618,0,14.83-2.913,20.486-7.682
	c5.172,4.964,12.028,7.682,19.514,7.682h1.55c3.597,20.573,21.397,36.118,43.171,36.118c21.773,0,40.387-15.545,45.06-36.118h6.219
	c16.201,0,30.569-13.171,32.029-29.36l6.094-67.506c0.008-0.091,0.004-0.181,0.01-0.273c0.01-0.139,0.029-0.275,0.033-0.415
	C422.52,215.589,422.512,215.508,422.512,215.424z M109.597,329.345c-13.785,0-24.707-11.214-24.346-24.999
	c0.361-13.786,11.87-25.001,25.655-25.001c13.785,0,24.706,11.215,24.345,25.001C134.89,318.131,123.382,329.345,109.597,329.345z
	 M333.597,329.345c-13.785,0-24.706-11.214-24.346-24.999c0.361-13.786,11.87-25.001,25.655-25.001
	c13.785,0,24.707,11.215,24.345,25.001C358.89,318.131,347.382,329.345,333.597,329.345z M396.457,282.588
	c-0.52,5.767-5.823,10.639-11.58,10.639h-6.727c-4.454-19.453-21.744-33.882-42.721-33.882c-20.977,0-39.022,14.429-44.494,33.882
	h-2.059c-2.542,0-4.81-0.953-6.389-2.685c-1.589-1.742-2.337-4.113-2.106-6.676l12.609-139.691l28.959,0.006l-4.59,50.852
	c-0.735,8.137,1.78,15.821,7.083,21.637c5.292,5.806,12.685,9.004,20.813,9.004h56.338L396.457,282.588z"/>
<g>
</g>
<g>
</g>
<g>
</g>
<g>
</g>
<g>
</g>
<g>
</g>
<g>
</g>
<g>
</g>
<g>
</g>
<g>
</g>
<g>
</g>
<g>
</g>
<g>
</g>
<g>
</g>
<g>
</g>
</svg>

<svg width="423" height="423" viewBox="0 0 423 423" fill="none" xmlns="http://www.w3.org/2000/svg">
<g clip-path="url(#clip0)">
<path d="M422.512 215.424C422.512 215.345 422.508 215.266 422.507 215.187C422.391 209.892 418.139 205.673 412.78 205.673H410.226L370.783 129.415C369.119 126.195 365.8 124.19 362.136 124.189L294.796 124.175L297.365 103.811C298.098 95.673 295.582 87.989 290.279 82.173C284.986 76.369 277.596 73.172 269.469 73.172H60.469C55.214 73.172 50.75 77.238 50.249 82.48L48.154 99.258H167.232C174.964 99.258 181.068 105.526 180.866 113.258C180.663 120.99 174.231 127.258 166.499 127.258H126.78C126.787 127.278 126.794 127.298 126.801 127.317H10.163C4.695 127.317 0.146003 131.749 0.00300313 137.217C-0.139997 142.685 4.176 147.117 9.644 147.117H164.06C171.228 148.221 176.583 154.42 176.386 161.925C176.17 170.167 169.347 176.85 161.119 176.919H54.661C49.138 176.919 44.544 181.396 44.399 186.919C44.254 192.442 48.614 196.919 54.137 196.919H159.341C166.614 197.932 172.076 204.181 171.878 211.759C171.661 220.043 164.769 226.759 156.485 226.759H35.792V226.77H25.651C20.128 226.77 15.534 231.247 15.389 236.77C15.244 242.293 19.603 246.77 25.127 246.77H33.879L30.456 282.588C29.722 290.725 32.238 298.409 37.542 304.225C42.834 310.03 50.225 313.226 58.352 313.226H65.902C69.5 333.8 87.3 349.345 109.073 349.345C130.846 349.345 149.46 333.8 154.133 313.227H248.352C255.97 313.227 263.182 310.314 268.838 305.545C274.01 310.509 280.866 313.227 288.352 313.227H289.902C293.499 333.8 311.299 349.345 333.073 349.345C354.846 349.345 373.46 333.8 378.133 313.227H384.352C400.553 313.227 414.921 300.056 416.381 283.867L422.475 216.361C422.483 216.27 422.479 216.18 422.485 216.088C422.495 215.949 422.514 215.813 422.518 215.673C422.52 215.589 422.512 215.508 422.512 215.424ZM109.597 329.345C95.812 329.345 84.89 318.131 85.251 304.346C85.612 290.56 97.121 279.345 110.906 279.345C124.691 279.345 135.612 290.56 135.251 304.346C134.89 318.131 123.382 329.345 109.597 329.345ZM333.597 329.345C319.812 329.345 308.891 318.131 309.251 304.346C309.612 290.56 321.121 279.345 334.906 279.345C348.691 279.345 359.613 290.56 359.251 304.346C358.89 318.131 347.382 329.345 333.597 329.345ZM396.457 282.588C395.937 288.355 390.634 293.227 384.877 293.227H378.15C373.696 273.774 356.406 259.345 335.429 259.345C314.452 259.345 296.407 273.774 290.935 293.227H288.876C286.334 293.227 284.066 292.274 282.487 290.542C280.898 288.8 280.15 286.429 280.381 283.866L292.99 144.175L321.949 144.181L317.359 195.033C316.624 203.17 319.139 210.854 324.442 216.67C329.734 222.476 337.127 225.674 345.255 225.674H401.593L396.457 282.588Z" fill="#666666"/>
</g>
<defs>
<clipPath id="clip0">
<rect width="422.518" height="422.518" fill="white"/>
</clipPath>
</defs>
</svg>
